swiss/communes/0141.svg

<?xml version="1.0" encoding="UTF-8" standalone="no"?>
<!-- Created with Inkscape (http://www.inkscape.org/) -->
<svg
   xmlns:svg="http://www.w3.org/2000/svg"
   xmlns="http://www.w3.org/2000/svg"
   version="1.0"
   width="215.60242"
   height="252.54463"
   id="svg2780">
  <defs
     id="defs2782" />
  <g
     transform="translate(-15.233967,-820.39926)"
     id="layer1">
    <path
       d="M 16.257395,821.42269 L 20.14022,984.53754 C 22.913658,1101.0481 223.15669,1101.0481 225.93014,984.53754 L 229.81296,821.42269 L 16.257395,821.42269 z "
       style="fill:#ffffff;fill-opacity:1;fill-rule:evenodd;stroke:#000000;stroke-width:2.04685593;stroke-linecap:butt;stroke-miterlimit:4;stroke-dashoffset:0;stroke-opacity:1"
       id="path3282" />
    <rect
       width="246.41037"
       height="6.1835713"
       x="453.45773"
       y="732.81482"
       transform="matrix(-0.6910389,0.7228176,0.7228176,0.6910389,0,0)"
       style="color:#000000;fill:#294530;fill-opacity:1;fill-rule:evenodd;stroke:#000000;stroke-width:1.00000012px;stroke-linecap:butt;stroke-linejoin:round;marker:none;marker-start:none;marker-mid:none;marker-end:none;stroke-miterlimit:4;stroke-dasharray:none;stroke-dashoffset:0;stroke-opacity:1;visibility:visible;display:inline;overflow:visible;enable-background:accumulate"
       id="rect4204" />
    <rect
       width="246.41037"
       height="6.1835713"
       x="624.85712"
       y="553.53326"
       transform="matrix(0.6910389,0.7228176,-0.7228176,0.6910389,0,0)"
       style="color:#000000;fill:#294530;fill-opacity:1;fill-rule:evenodd;stroke:#000000;stroke-width:1.00000012px;stroke-linecap:butt;stroke-linejoin:round;marker:none;marker-start:none;marker-mid:none;marker-end:none;stroke-miterlimit:4;stroke-dasharray:none;stroke-dashoffset:0;stroke-opacity:1;visibility:visible;display:inline;overflow:visible;enable-background:accumulate"
       id="rect2254" />
    <rect
       width="82.775757"
       height="21.145397"
       rx="9.5935669"
       ry="9.5935669"
       x="641.79633"
       y="546.27637"
       transform="matrix(0.6910389,0.7228176,-0.7228176,0.6910389,0,0)"
       style="color:#000000;fill:#000000;fill-opacity:1;fill-rule:evenodd;stroke:none;stroke-width:1.00000012px;stroke-linecap:butt;stroke-linejoin:miter;marker:none;marker-start:none;marker-mid:none;marker-end:none;stroke-miterlimit:4;stroke-dasharray:none;stroke-dashoffset:0;stroke-opacity:1;visibility:visible;display:inline;overflow:visible;enable-background:accumulate"
       id="rect2258" />
    <path
       d="M 125.1273,1010.483 C 158.47567,990.71127 190.54369,1016.5948 200.41011,1023.9442 L 205.64501,1019.7064 C 158.66823,982.64982 133.0259,982.42089 125.1273,1010.483 z "
       style="color:#000000;fill:#294530;fill-opacity:1;fill-rule:evenodd;stroke:#000000;stroke-width:1.00000012px;stroke-linecap:butt;stroke-linejoin:round;marker:none;marker-start:none;marker-mid:none;marker-end:none;stroke-miterlimit:4;stroke-dasharray:none;stroke-dashoffset:0;stroke-opacity:1;visibility:visible;display:inline;overflow:visible;enable-background:accumulate"
       id="path4200" />
    <path
       d="M 201.9058,881.85409 C 180.99929,938.18136 194.87125,984.24697 205.64501,1019.7064 L 200.41011,1023.9442 C 171.92959,959.17754 170.39447,910.89151 201.9058,881.85409 z "
       style="color:#000000;fill:#294530;fill-opacity:1;fill-rule:evenodd;stroke:#000000;stroke-width:1.00000012px;stroke-linecap:butt;stroke-linejoin:round;marker:none;marker-start:none;marker-mid:none;marker-end:none;stroke-miterlimit:4;stroke-dasharray:none;stroke-dashoffset:0;stroke-opacity:1;visibility:visible;display:inline;overflow:visible;enable-background:accumulate"
       id="path4202" />
    <rect
       width="82.775757"
       height="21.145397"
       rx="9.5935669"
       ry="9.5935669"
       x="470.39694"
       y="725.55792"
       transform="matrix(-0.6910389,0.7228176,0.7228176,0.6910389,0,0)"
       style="color:#000000;fill:#000000;fill-opacity:1;fill-rule:evenodd;stroke:none;stroke-width:1.00000012px;stroke-linecap:butt;stroke-linejoin:miter;marker:none;marker-start:none;marker-mid:none;marker-end:none;stroke-miterlimit:4;stroke-dasharray:none;stroke-dashoffset:0;stroke-opacity:1;visibility:visible;display:inline;overflow:visible;enable-background:accumulate"
       id="rect4206" />
    <path
       d="M 122.90416,1010.483 C 89.555792,990.71127 57.487772,1016.5948 47.621352,1023.9442 L 42.386452,1019.7064 C 89.363232,982.64982 115.00556,982.42089 122.90416,1010.483 z "
       style="color:#000000;fill:#294530;fill-opacity:1;fill-rule:evenodd;stroke:#000000;stroke-width:1.00000012px;stroke-linecap:butt;stroke-linejoin:round;marker:none;marker-start:none;marker-mid:none;marker-end:none;stroke-miterlimit:4;stroke-dasharray:none;stroke-dashoffset:0;stroke-opacity:1;visibility:visible;display:inline;overflow:visible;enable-background:accumulate"
       id="path4208" />
    <path
       d="M 46.125662,881.85409 C 67.032172,938.18136 53.160212,984.24697 42.386452,1019.7064 L 47.621352,1023.9442 C 76.101872,959.17754 77.636992,910.89151 46.125662,881.85409 z "
       style="color:#000000;fill:#294530;fill-opacity:1;fill-rule:evenodd;stroke:#000000;stroke-width:1.00000012px;stroke-linecap:butt;stroke-linejoin:round;marker:none;marker-start:none;marker-mid:none;marker-end:none;stroke-miterlimit:4;stroke-dasharray:none;stroke-dashoffset:0;stroke-opacity:1;visibility:visible;display:inline;overflow:visible;enable-background:accumulate"
       id="path4210" />
  </g>
</svg>

<svg xmlns="http://www.w3.org/2000/svg" version="1.0" width="215.602" height="252.545"><g transform="translate(-15.234 -820.4)"><path d="m16.257 821.423 3.883 163.115c2.774 116.51 203.017 116.51 205.79 0l3.883-163.115H16.257z" style="fill:#fff;fill-opacity:1;fill-rule:evenodd;stroke:#000;stroke-width:2.04685593;stroke-linecap:butt;stroke-miterlimit:4;stroke-dashoffset:0;stroke-opacity:1"/><path transform="scale(-1 1) rotate(46.288)" style="color:#000;fill:#294530;fill-opacity:1;fill-rule:evenodd;stroke:#000;stroke-width:1.00000012px;stroke-linecap:butt;stroke-linejoin:round;marker:none;marker-start:none;marker-mid:none;marker-end:none;stroke-miterlimit:4;stroke-dasharray:none;stroke-dashoffset:0;stroke-opacity:1;visibility:visible;display:inline;overflow:visible;enable-background:accumulate" d="M453.458 732.815h246.41v6.184h-246.41z"/><path transform="rotate(46.288)" style="color:#000;fill:#294530;fill-opacity:1;fill-rule:evenodd;stroke:#000;stroke-width:1.00000012px;stroke-linecap:butt;stroke-linejoin:round;marker:none;marker-start:none;marker-mid:none;marker-end:none;stroke-miterlimit:4;stroke-dasharray:none;stroke-dashoffset:0;stroke-opacity:1;visibility:visible;display:inline;overflow:visible;enable-background:accumulate" d="M624.857 553.533h246.41v6.184h-246.41z"/><rect width="82.776" height="21.145" rx="9.594" ry="9.594" x="641.796" y="546.276" transform="rotate(46.288)" style="color:#000;fill:#000;fill-opacity:1;fill-rule:evenodd;stroke:none;stroke-width:1.00000012px;stroke-linecap:butt;stroke-linejoin:miter;marker:none;marker-start:none;marker-mid:none;marker-end:none;stroke-miterlimit:4;stroke-dasharray:none;stroke-dashoffset:0;stroke-opacity:1;visibility:visible;display:inline;overflow:visible;enable-background:accumulate"/><path d="M125.127 1010.483c33.349-19.772 65.417 6.112 75.283 13.461l5.235-4.238c-46.977-37.056-72.62-37.285-80.518-9.223z" style="color:#000;fill:#294530;fill-opacity:1;fill-rule:evenodd;stroke:#000;stroke-width:1.00000012px;stroke-linecap:butt;stroke-linejoin:round;marker:none;marker-start:none;marker-mid:none;marker-end:none;stroke-miterlimit:4;stroke-dasharray:none;stroke-dashoffset:0;stroke-opacity:1;visibility:visible;display:inline;overflow:visible;enable-background:accumulate"/><path d="M201.906 881.854c-20.907 56.327-7.035 102.393 3.739 137.852l-5.235 4.238c-28.48-64.766-30.016-113.052 1.496-142.09z" style="color:#000;fill:#294530;fill-opacity:1;fill-rule:evenodd;stroke:#000;stroke-width:1.00000012px;stroke-linecap:butt;stroke-linejoin:round;marker:none;marker-start:none;marker-mid:none;marker-end:none;stroke-miterlimit:4;stroke-dasharray:none;stroke-dashoffset:0;stroke-opacity:1;visibility:visible;display:inline;overflow:visible;enable-background:accumulate"/><rect width="82.776" height="21.145" rx="9.594" ry="9.594" x="470.397" y="725.558" transform="scale(-1 1) rotate(46.288)" style="color:#000;fill:#000;fill-opacity:1;fill-rule:evenodd;stroke:none;stroke-width:1.00000012px;stroke-linecap:butt;stroke-linejoin:miter;marker:none;marker-start:none;marker-mid:none;marker-end:none;stroke-miterlimit:4;stroke-dasharray:none;stroke-dashoffset:0;stroke-opacity:1;visibility:visible;display:inline;overflow:visible;enable-background:accumulate"/><path d="M122.904 1010.483c-33.348-19.772-65.416 6.112-75.283 13.461l-5.235-4.238c46.977-37.056 72.62-37.285 80.518-9.223z" style="color:#000;fill:#294530;fill-opacity:1;fill-rule:evenodd;stroke:#000;stroke-width:1.00000012px;stroke-linecap:butt;stroke-linejoin:round;marker:none;marker-start:none;marker-mid:none;marker-end:none;stroke-miterlimit:4;stroke-dasharray:none;stroke-dashoffset:0;stroke-opacity:1;visibility:visible;display:inline;overflow:visible;enable-background:accumulate"/><path d="M46.126 881.854c20.906 56.327 7.034 102.393-3.74 137.852l5.235 4.238c28.48-64.766 30.016-113.052-1.495-142.09z" style="color:#000;fill:#294530;fill-opacity:1;fill-rule:evenodd;stroke:#000;stroke-width:1.00000012px;stroke-linecap:butt;stroke-linejoin:round;marker:none;marker-start:none;marker-mid:none;marker-end:none;stroke-miterlimit:4;stroke-dasharray:none;stroke-dashoffset:0;stroke-opacity:1;visibility:visible;display:inline;overflow:visible;enable-background:accumulate"/></g></svg>
